src/svg/compass.svg

<svg version="1.2" baseProfile="tiny" xmlns="http://www.w3.org/2000/svg" width="24" height="24" viewBox="0 0 24 24"><g><path d="M12 5c3.859.001 7 3.142 7 7.001 0 3.858-3.141 6.998-7 6.999-3.859 0-7-3.14-7-6.999s3.141-7 7-7.001m0-2c-4.971.001-9 4.03-9 9.001 0 4.97 4.029 8.999 9 8.999 4.97-.001 9-4.03 9-8.999 0-4.971-4.029-9-9-9.001zM16.182 7.819c-.129-.128-.315-.178-.491-.127l-5.951 1.706c-.166.048-.295.177-.342.343l-1.707 5.951c-.051.175-.002.363.127.491.095.095.223.146.354.146l.138-.02 5.95-1.708c.165-.047.295-.177.342-.343l1.707-5.949c.05-.173.002-.361-.127-.49zm-7.282 7.282l1.383-4.817 3.434 3.435-4.817 1.382z"/></g></svg>

<?xml version="1.0" encoding="iso-8859-1"?>
<!-- Generator: Adobe Illustrator 16.2.1, SVG Export Plug-In . SVG Version: 6.00 Build 0)  -->
<svg version="1.2" baseProfile="tiny" xmlns="http://www.w3.org/2000/svg" xmlns:xlink="http://www.w3.org/1999/xlink" x="0px"
	 y="0px" width="24px" height="24px" viewBox="0 0 24 24" xml:space="preserve">
<g id="Layer_1">
	<g>
		<path d="M12,5c3.859,0.001,7,3.142,7,7.001c0,3.858-3.141,6.998-7,6.999c-3.859,0-7-3.14-7-6.999S8.141,5.001,12,5 M12,3
			c-4.971,0.001-9,4.03-9,9.001C3,16.971,7.029,21,12,21c4.97-0.001,9-4.03,9-8.999C21,7.03,16.971,3.001,12,3z"/>
	</g>
	<path d="M16.182,7.819c-0.129-0.128-0.315-0.178-0.491-0.127L9.74,9.398C9.574,9.446,9.445,9.575,9.398,9.741l-1.707,5.951
		c-0.051,0.175-0.002,0.363,0.127,0.491c0.095,0.095,0.223,0.146,0.354,0.146c0.045,0,0.092-0.006,0.138-0.02l5.95-1.708
		c0.165-0.047,0.295-0.177,0.342-0.343l1.707-5.949C16.359,8.136,16.311,7.948,16.182,7.819z M8.9,15.101l1.383-4.817l3.434,3.435
		L8.9,15.101z"/>
</g>
<g id="nyt_x5F_exporter_x5F_info" display="none">
</g>
</svg>
